latex_in_markdown/.watch-latex-md-images/595b683d9df64077313c6506297cdf8d.svg

<ns0:svg xmlns:ns0="http://www.w3.org/2000/svg" xmlns:ns1="http://www.w3.org/1999/xlink" height="73.0902pt" version="1.1" viewBox="160.124 90.66 147 73.0902" width="147pt" watch_lated_md:baseline="50.346199999999996" xmlns:watch_lated_md="https://github.com/Quansight/pearu-sandbox/latex_in_markdown/">
<ns0:defs>
<ns0:path d="m11.345 -3.95955c0.292662 0 0.60254 0 0.60254 -0.344309s-0.309878 -0.344309 -0.60254 -0.344309h-9.31355c-0.292662 0 -0.60254 0 -0.60254 0.344309s0.309878 0.344309 0.60254 0.344309h9.31355z" id="g0-0" />
<ns0:path d="m3.16764 -0.826341c0 -0.499248 -0.413171 -0.843557 -0.826341 -0.843557c-0.499248 0 -0.843557 0.413171 -0.843557 0.826341c0 0.499248 0.413171 0.843557 0.826341 0.843557c0.499248 0 0.843557 -0.413171 0.843557 -0.826341z" id="g1-58" />
<ns0:path d="m8.16012 -7.0239c-0.550894 0.103293 -0.757479 0.516463 -0.757479 0.843557c0 0.413171 0.327093 0.550894 0.56811 0.550894c0.516463 0 0.877987 -0.447601 0.877987 -0.912418c0 -0.723049 -0.826341 -1.05014 -1.54939 -1.05014c-1.05014 0 -1.63547 1.03293 -1.79041 1.36002c-0.395955 -1.29116 -1.46331 -1.36002 -1.77319 -1.36002c-1.75597 0 -2.68561 2.25522 -2.68561 2.63396c0 0.0688618 0.0688618 0.154939 0.18937 0.154939c0.137724 0 0.172154 -0.103293 0.206585 -0.172154c0.585325 -1.91091 1.73876 -2.27244 2.23801 -2.27244c0.774695 0 0.929634 0.723049 0.929634 1.13622c0 0.37874 -0.103293 0.774695 -0.309878 1.60104l-0.585325 2.35852c-0.258232 1.03293 -0.757479 1.97978 -1.6699 1.97978c-0.0860772 0 -0.516463 0 -0.877987 -0.223801c0.619756 -0.120508 0.757479 -0.636971 0.757479 -0.843557c0 -0.344309 -0.258232 -0.550894 -0.585325 -0.550894c-0.413171 0 -0.860772 0.361524 -0.860772 0.912418c0 0.723049 0.809126 1.05014 1.54939 1.05014c0.826341 0 1.41167 -0.654187 1.77319 -1.36002c0.275447 1.01571 1.13622 1.36002 1.77319 1.36002c1.75597 0 2.68561 -2.25522 2.68561 -2.63396c0 -0.0860772 -0.0688618 -0.154939 -0.172154 -0.154939c-0.154939 0 -0.172154 0.0860772 -0.223801 0.223801c-0.464817 1.51496 -1.46331 2.22079 -2.23801 2.22079c-0.60254 0 -0.929634 -0.447601 -0.929634 -1.15343c0 -0.37874 0.0688618 -0.654187 0.344309 -1.79041l0.60254 -2.3413c0.258232 -1.03293 0.843557 -1.79041 1.63547 -1.79041c0.0344309 0 0.516463 0 0.877987 0.223801z" id="g1-120" />
<ns0:path d="m4.52766 1.92813c-0.464817 0.654187 -1.13622 1.23951 -1.97978 1.23951c-0.206585 0 -1.03293 -0.0344309 -1.29116 -0.826341c0.0516463 0.0172154 0.137724 0.0172154 0.172154 0.0172154c0.516463 0 0.860772 -0.447601 0.860772 -0.843557s-0.327093 -0.533679 -0.585325 -0.533679c-0.275447 0 -0.877987 0.206585 -0.877987 1.05014c0 0.877987 0.740264 1.48053 1.72154 1.48053c1.72154 0 3.4603 -1.58382 3.94234 -3.49473l1.68711 -6.71402c0.0172154 -0.0860772 0.0516463 -0.18937 0.0516463 -0.292662c0 -0.258232 -0.206585 -0.430386 -0.464817 -0.430386c-0.154939 0 -0.516463 0.0688618 -0.654187 0.585325l-1.27394 5.06134c-0.0860772 0.309878 -0.0860772 0.344309 -0.223801 0.533679c-0.344309 0.482032 -0.912418 1.06736 -1.73876 1.06736c-0.964065 0 -1.05014 -0.946849 -1.05014 -1.41167c0 -0.98128 0.464817 -2.30687 0.929634 -3.54638c0.18937 -0.499248 0.292662 -0.740264 0.292662 -1.08457c0 -0.723049 -0.516463 -1.37724 -1.36002 -1.37724c-1.58382 0 -2.22079 2.49624 -2.22079 2.63396c0 0.0688618 0.0688618 0.154939 0.18937 0.154939c0.154939 0 0.172154 -0.0688618 0.241016 -0.309878c0.413171 -1.4461 1.06736 -2.13471 1.73876 -2.13471c0.154939 0 0.447601 0 0.447601 0.56811c0 0.447601 -0.18937 0.946849 -0.447601 1.60104c-0.843557 2.25522 -0.843557 2.82333 -0.843557 3.2365c0 1.63547 1.17065 2.01421 2.03142 2.01421c0.499248 0 1.119 -0.154939 1.72154 -0.79191l0.0172154 0.0172154c-0.258232 1.01571 -0.430386 1.68711 -1.03293 2.53067z" id="g1-121" />
<ns0:path d="m6.49022 -3.99398h4.56209c0.241016 0 0.533679 0 0.533679 -0.292662c0 -0.309878 -0.275447 -0.309878 -0.533679 -0.309878h-4.56209v-4.56209c0 -0.241016 0 -0.533679 -0.292662 -0.533679c-0.309878 0 -0.309878 0.275447 -0.309878 0.533679v4.56209h-4.56209c-0.241016 0 -0.533679 0 -0.533679 0.292662c0 0.309878 0.275447 0.309878 0.533679 0.309878h4.56209v4.56209c0 0.241016 0 0.533679 0.292662 0.533679c0.309878 0 0.309878 -0.275447 0.309878 -0.533679v-4.56209z" id="g2-43" />
<ns0:path d="m4.57931 -11.0007c0 -0.361524 -0.0172154 -0.37874 -0.258232 -0.37874c-0.671402 0.809126 -1.68711 1.06736 -2.65118 1.10179c-0.0516463 0 -0.137724 0 -0.154939 0.0344309s-0.0172154 0.0688618 -0.0172154 0.430386c0.533679 0 1.42888 -0.103293 2.1175 -0.516463v9.07254c0 0.60254 -0.0344309 0.809126 -1.51496 0.809126h-0.516463v0.447601c0.826341 -0.0172154 1.68711 -0.0344309 2.51345 -0.0344309s1.68711 0.0172154 2.51345 0.0344309v-0.447601h-0.516463c-1.48053 0 -1.51496 -0.18937 -1.51496 -0.809126v-9.74394z" id="g2-49" />
<ns0:path d="m5.78439 -11.1384c0 -0.361524 -0.0172154 -0.37874 -0.327093 -0.37874l-5.11299 8.1429v0.447601h4.44158v1.68711c0 0.619756 -0.0344309 0.79191 -1.23951 0.79191h-0.327093v0.447601c0.550894 -0.0344309 1.48053 -0.0344309 2.06585 -0.0344309s1.51496 0 2.06585 0.0344309v-0.447601h-0.327093c-1.20508 0 -1.23951 -0.172154 -1.23951 -0.79191v-1.68711h1.75597v-0.447601h-1.75597v-7.76416zm-0.946849 1.13622v6.62794h-4.14892l4.14892 -6.62794z" id="g2-52" />
<ns0:path d="m1.96256 -10.071c0.172154 0.0688618 0.877987 0.292662 1.60104 0.292662c1.60104 0 2.47902 -0.860772 2.97827 -1.36002c0 -0.137724 0 -0.223801 -0.103293 -0.223801c-0.0172154 0 -0.0516463 0 -0.18937 0.0688618c-0.60254 0.258232 -1.30837 0.464817 -2.16915 0.464817c-0.516463 0 -1.29116 -0.0688618 -2.13471 -0.447601c-0.18937 -0.0860772 -0.223801 -0.0860772 -0.241016 -0.0860772c-0.0860772 0 -0.103293 0.0172154 -0.103293 0.361524v4.99248c0 0.309878 0 0.395955 0.172154 0.395955c0.0860772 0 0.120508 -0.0344309 0.206585 -0.154939c0.550894 -0.774695 1.30837 -1.10179 2.16915 -1.10179c0.60254 0 1.8937 0.37874 1.8937 3.32258c0 0.550894 0 1.54939 -0.516463 2.3413c-0.430386 0.705833 -1.10179 1.06736 -1.84205 1.06736c-1.13622 0 -2.28965 -0.79191 -2.59953 -2.1175c0.0688618 0.0172154 0.206585 0.0516463 0.275447 0.0516463c0.223801 0 0.654187 -0.120508 0.654187 -0.654187c0 -0.464817 -0.327093 -0.654187 -0.654187 -0.654187c-0.395955 0 -0.654187 0.241016 -0.654187 0.723049c0 1.49774 1.18787 3.06435 3.0127 3.06435c1.77319 0 3.4603 -1.53217 3.4603 -3.75297c0 -2.06585 -1.3428 -3.66689 -3.0127 -3.66689c-0.877987 0 -1.61825 0.327093 -2.20358 0.946849v-3.87347z" id="g2-53" />
<ns0:path d="m1.82484 -5.93933c0 -4.11449 1.92813 -5.04412 3.04713 -5.04412c0.361524 0 1.23951 0.0688618 1.58382 0.740264c-0.275447 0 -0.79191 0 -0.79191 0.60254c0 0.464817 0.37874 0.619756 0.619756 0.619756c0.154939 0 0.619756 -0.0688618 0.619756 -0.654187c0 -1.08457 -0.860772 -1.70433 -2.04864 -1.70433c-2.04864 0 -4.20057 2.13471 -4.20057 5.93933c0 4.6826 1.94534 5.71553 3.32258 5.71553c1.6699 0 3.25372 -1.49774 3.25372 -3.80461c0 -2.15193 -1.39445 -3.71854 -3.15043 -3.71854c-1.05014 0 -1.82484 0.688618 -2.25522 1.8937v-0.585325zm2.15193 5.8016c-2.1175 0 -2.1175 -3.16764 -2.1175 -3.80461c0 -1.23951 0.585325 -3.02992 2.18636 -3.02992c0.292662 0 1.13622 0 1.70433 1.18787c0.309878 0.671402 0.309878 1.37724 0.309878 2.23801c0 0.929634 0 1.61825 -0.361524 2.30687c-0.37874 0.705833 -0.929634 1.10179 -1.72154 1.10179z" id="g2-54" />
<ns0:path d="m6.05984 -5.09577c0 3.7874 -1.56661 4.95805 -2.85776 4.95805c-0.395955 0 -1.36002 -0.0516463 -1.75597 -0.723049c0.447601 0.0688618 0.774695 -0.172154 0.774695 -0.60254c0 -0.464817 -0.37874 -0.619756 -0.619756 -0.619756c-0.154939 0 -0.619756 0.0688618 -0.619756 0.654187c0 1.17065 1.01571 1.70433 2.25522 1.70433c1.97978 0 3.99398 -2.16915 3.99398 -5.95654c0 -4.71703 -1.92813 -5.69831 -3.2365 -5.69831c-1.70433 0 -3.3398 1.49774 -3.3398 3.80461c0 2.13471 1.39445 3.71854 3.15043 3.71854c1.4461 0 2.08307 -1.3428 2.25522 -1.91091v0.671402zm-2.22079 0.964065c-0.464817 0 -1.119 -0.0860772 -1.65268 -1.119c-0.361524 -0.671402 -0.361524 -1.46331 -0.361524 -2.30687c0 -1.01571 0 -1.72154 0.482032 -2.47902c0.241016 -0.361524 0.688618 -0.946849 1.68711 -0.946849c2.03142 0 2.03142 3.11599 2.03142 3.80461c0 1.2223 -0.550894 3.04713 -2.18636 3.04713z" id="g2-57" />
<ns0:path d="m11.0695 -5.52616c0.258232 0 0.516463 0 0.516463 -0.292662c0 -0.309878 -0.292662 -0.309878 -0.585325 -0.309878h-9.62343c-0.292662 0 -0.585325 0 -0.585325 0.309878c0 0.292662 0.258232 0.292662 0.516463 0.292662h9.76115zm-0.0688618 3.06435c0.292662 0 0.585325 0 0.585325 -0.309878c0 -0.292662 -0.258232 -0.292662 -0.516463 -0.292662h-9.76115c-0.258232 0 -0.516463 0 -0.516463 0.292662c0 0.309878 0.292662 0.309878 0.585325 0.309878h9.62343z" id="g2-61" />
</ns0:defs>
<ns0:g id="page1">
<ns0:use x="160.124" ns1:href="#g1-121" y="113.404" />
<ns0:use x="173.742" ns1:href="#g2-61" y="113.404" />
<ns0:use x="190.917" ns1:href="#g0-0" y="113.404" />
<ns0:use x="205.502" ns1:href="#g2-49" y="101.757" />
<ns0:use x="213.397" ns1:href="#g2-53" y="101.757" />
<ns0:rect height="0.688595" width="15.7906" x="205.502" y="108.755" />
<ns0:use x="209.45" ns1:href="#g2-52" y="125.213" />
<ns0:use x="222.488" ns1:href="#g1-120" y="113.404" />
<ns0:use x="235.893" ns1:href="#g0-0" y="113.404" />
<ns0:use x="254.304" ns1:href="#g2-49" y="101.757" />
<ns0:use x="262.199" ns1:href="#g2-53" y="101.757" />
<ns0:rect height="0.688595" width="15.7906" x="254.304" y="108.755" />
<ns0:use x="258.252" ns1:href="#g2-52" y="125.213" />
<ns0:use x="275.116" ns1:href="#g2-43" y="113.404" />
<ns0:use x="291.334" ns1:href="#g2-49" y="113.404" />
<ns0:use x="299.229" ns1:href="#g2-54" y="113.404" />
<ns0:use x="173.742" ns1:href="#g2-61" y="151.941" />
<ns0:use x="190.917" ns1:href="#g0-0" y="151.941" />
<ns0:use x="205.502" ns1:href="#g2-49" y="140.295" />
<ns0:use x="213.397" ns1:href="#g2-53" y="140.295" />
<ns0:rect height="0.688595" width="15.7906" x="205.502" y="147.293" />
<ns0:use x="209.45" ns1:href="#g2-52" y="163.75" />
<ns0:use x="222.488" ns1:href="#g1-120" y="151.941" />
<ns0:use x="235.893" ns1:href="#g2-43" y="151.941" />
<ns0:use x="253.306" ns1:href="#g2-52" y="140.295" />
<ns0:use x="261.202" ns1:href="#g2-57" y="140.295" />
<ns0:rect height="0.688595" width="15.7906" x="253.306" y="147.293" />
<ns0:use x="257.254" ns1:href="#g2-52" y="163.75" />
<ns0:use x="270.292" ns1:href="#g1-58" y="151.941" />
</ns0:g>
</ns0:svg>

<ns0:svg xmlns:ns0="http://www.w3.org/2000/svg" xmlns:ns1="http://www.w3.org/1999/xlink" height="90.4418pt" version="1.1" viewBox="23.686 73.3084 283.438 90.4418" width="283.438pt" watch_lated_md:baseline="89.0304" xmlns:watch_lated_md="https://github.com/Quansight/pearu-sandbox/latex_in_markdown/">
<ns0:defs>
<ns0:path d="M11.345 -3.95955C11.6376 -3.95955 11.9475 -3.95955 11.9475 -4.30386S11.6376 -4.64817 11.345 -4.64817H2.03142C1.73876 -4.64817 1.42888 -4.64817 1.42888 -4.30386S1.73876 -3.95955 2.03142 -3.95955H11.345Z" id="g0-0" />
<ns0:path d="M3.16764 -0.826341C3.16764 -1.32559 2.75447 -1.6699 2.3413 -1.6699C1.84205 -1.6699 1.49774 -1.25673 1.49774 -0.843557C1.49774 -0.344309 1.91091 0 2.32408 0C2.82333 0 3.16764 -0.413171 3.16764 -0.826341Z" id="g1-58" />
<ns0:path d="M8.16012 -7.0239C7.60922 -6.92061 7.40264 -6.50744 7.40264 -6.18034C7.40264 -5.76717 7.72973 -5.62945 7.97075 -5.62945C8.48721 -5.62945 8.84874 -6.07705 8.84874 -6.54187C8.84874 -7.26492 8.0224 -7.59201 7.29935 -7.59201C6.24921 -7.59201 5.66388 -6.55908 5.50894 -6.23199C5.11299 -7.52315 4.04563 -7.59201 3.73575 -7.59201C1.97978 -7.59201 1.05014 -5.33679 1.05014 -4.95805C1.05014 -4.88919 1.119 -4.80311 1.23951 -4.80311C1.37724 -4.80311 1.41167 -4.9064 1.4461 -4.97526C2.03142 -6.88618 3.18486 -7.2477 3.6841 -7.2477C4.4588 -7.2477 4.61374 -6.52465 4.61374 -6.11148C4.61374 -5.73274 4.51045 -5.33679 4.30386 -4.51045L3.71854 -2.15193C3.4603 -1.119 2.96106 -0.172154 2.04864 -0.172154C1.96256 -0.172154 1.53217 -0.172154 1.17065 -0.395955C1.79041 -0.516463 1.92813 -1.03293 1.92813 -1.23951C1.92813 -1.58382 1.6699 -1.79041 1.3428 -1.79041C0.929634 -1.79041 0.482032 -1.42888 0.482032 -0.877987C0.482032 -0.154939 1.29116 0.172154 2.03142 0.172154C2.85776 0.172154 3.44309 -0.482032 3.80461 -1.18787C4.08006 -0.172154 4.94083 0.172154 5.5778 0.172154C7.33378 0.172154 8.26341 -2.08307 8.26341 -2.46181C8.26341 -2.54789 8.19455 -2.61675 8.09126 -2.61675C7.93632 -2.61675 7.9191 -2.53067 7.86746 -2.39295C7.40264 -0.877987 6.40414 -0.172154 5.62945 -0.172154C5.02691 -0.172154 4.69982 -0.619756 4.69982 -1.32559C4.69982 -1.70433 4.76868 -1.97978 5.04412 -3.11599L5.64666 -5.45729C5.9049 -6.49022 6.49022 -7.2477 7.28213 -7.2477C7.31656 -7.2477 7.79859 -7.2477 8.16012 -7.0239Z" id="g1-120" />
<ns0:path d="M4.52766 1.92813C4.06284 2.58232 3.39144 3.16764 2.54789 3.16764C2.3413 3.16764 1.51496 3.13321 1.25673 2.3413C1.30837 2.35852 1.39445 2.35852 1.42888 2.35852C1.94534 2.35852 2.28965 1.91091 2.28965 1.51496S1.96256 0.98128 1.70433 0.98128C1.42888 0.98128 0.826341 1.18787 0.826341 2.03142C0.826341 2.90941 1.56661 3.51195 2.54789 3.51195C4.26943 3.51195 6.00819 1.92813 6.49022 0.0172154L8.17733 -6.69681C8.19455 -6.78288 8.22898 -6.88618 8.22898 -6.98947C8.22898 -7.2477 8.0224 -7.41986 7.76416 -7.41986C7.60922 -7.41986 7.2477 -7.35099 7.10998 -6.83453L5.83603 -1.77319C5.74996 -1.46331 5.74996 -1.42888 5.61223 -1.23951C5.26792 -0.757479 4.69982 -0.172154 3.87347 -0.172154C2.90941 -0.172154 2.82333 -1.119 2.82333 -1.58382C2.82333 -2.5651 3.28815 -3.89069 3.75297 -5.1302C3.94234 -5.62945 4.04563 -5.87047 4.04563 -6.21477C4.04563 -6.93782 3.52917 -7.59201 2.68561 -7.59201C1.10179 -7.59201 0.464817 -5.09577 0.464817 -4.95805C0.464817 -4.88919 0.533679 -4.80311 0.654187 -4.80311C0.809126 -4.80311 0.826341 -4.87197 0.895203 -5.11299C1.30837 -6.55908 1.96256 -7.2477 2.63396 -7.2477C2.7889 -7.2477 3.08156 -7.2477 3.08156 -6.67959C3.08156 -6.23199 2.89219 -5.73274 2.63396 -5.07856C1.79041 -2.82333 1.79041 -2.25522 1.79041 -1.84205C1.79041 -0.206585 2.96106 0.172154 3.82183 0.172154C4.32108 0.172154 4.94083 0.0172154 5.54337 -0.619756L5.56059 -0.60254C5.30236 0.413171 5.1302 1.08457 4.52766 1.92813Z" id="g1-121" />
<ns0:path d="M6.49022 -3.99398H11.0523C11.2933 -3.99398 11.586 -3.99398 11.586 -4.28664C11.586 -4.59652 11.3105 -4.59652 11.0523 -4.59652H6.49022V-9.15861C6.49022 -9.39963 6.49022 -9.69229 6.19756 -9.69229C5.88768 -9.69229 5.88768 -9.41685 5.88768 -9.15861V-4.59652H1.32559C1.08457 -4.59652 0.79191 -4.59652 0.79191 -4.30386C0.79191 -3.99398 1.06736 -3.99398 1.32559 -3.99398H5.88768V0.56811C5.88768 0.809126 5.88768 1.10179 6.18034 1.10179C6.49022 1.10179 6.49022 0.826341 6.49022 0.56811V-3.99398Z" id="g2-43" />
<ns0:path d="M2.85776 -0.705833C2.85776 -1.13622 2.51345 -1.41167 2.15193 -1.41167C1.80762 -1.41167 1.4461 -1.13622 1.4461 -0.705833S1.79041 0 2.15193 0C2.49624 0 2.85776 -0.275447 2.85776 -0.705833Z" id="g2-46" />
<ns0:path d="M4.57931 -11.0007C4.57931 -11.3622 4.56209 -11.3794 4.32108 -11.3794C3.64967 -10.5703 2.63396 -10.312 1.6699 -10.2776C1.61825 -10.2776 1.53217 -10.2776 1.51496 -10.2432S1.49774 -10.1743 1.49774 -9.8128C2.03142 -9.8128 2.92662 -9.91609 3.61524 -10.3293V-1.25673C3.61524 -0.654187 3.58081 -0.447601 2.10028 -0.447601H1.58382V0C2.41016 -0.0172154 3.27093 -0.0344309 4.09727 -0.0344309S5.78439 -0.0172154 6.61073 0V-0.447601H6.09427C4.61374 -0.447601 4.57931 -0.636971 4.57931 -1.25673V-11.0007Z" id="g2-49" />
<ns0:path d="M5.78439 -11.1384C5.78439 -11.4999 5.76717 -11.5171 5.45729 -11.5171L0.344309 -3.37423V-2.92662H4.78589V-1.23951C4.78589 -0.619756 4.75146 -0.447601 3.54638 -0.447601H3.21929V0C3.77018 -0.0344309 4.69982 -0.0344309 5.28514 -0.0344309S6.8001 -0.0344309 7.35099 0V-0.447601H7.0239C5.81882 -0.447601 5.78439 -0.619756 5.78439 -1.23951V-2.92662H7.54036V-3.37423H5.78439V-11.1384ZM4.83754 -10.0022V-3.37423H0.688618L4.83754 -10.0022Z" id="g2-52" />
<ns0:path d="M1.96256 -10.071C2.13471 -10.0022 2.84055 -9.77837 3.5636 -9.77837C5.16463 -9.77837 6.04262 -10.6391 6.54187 -11.1384C6.54187 -11.2761 6.54187 -11.3622 6.43857 -11.3622C6.42136 -11.3622 6.38693 -11.3622 6.24921 -11.2933C5.64666 -11.0351 4.94083 -10.8285 4.08006 -10.8285C3.5636 -10.8285 2.7889 -10.8974 1.94534 -11.2761C1.75597 -11.3622 1.72154 -11.3622 1.70433 -11.3622C1.61825 -11.3622 1.60104 -11.345 1.60104 -11.0007V-6.00819C1.60104 -5.69831 1.60104 -5.61223 1.77319 -5.61223C1.85927 -5.61223 1.8937 -5.64666 1.97978 -5.76717C2.53067 -6.54187 3.28815 -6.86896 4.14892 -6.86896C4.75146 -6.86896 6.04262 -6.49022 6.04262 -3.54638C6.04262 -2.99549 6.04262 -1.99699 5.52616 -1.20508C5.09577 -0.499248 4.42437 -0.137724 3.6841 -0.137724C2.54789 -0.137724 1.39445 -0.929634 1.08457 -2.25522C1.15343 -2.23801 1.29116 -2.20358 1.36002 -2.20358C1.58382 -2.20358 2.01421 -2.32408 2.01421 -2.85776C2.01421 -3.32258 1.68711 -3.51195 1.36002 -3.51195C0.964065 -3.51195 0.705833 -3.27093 0.705833 -2.7889C0.705833 -1.29116 1.8937 0.275447 3.71854 0.275447C5.49173 0.275447 7.17884 -1.25673 7.17884 -3.47752C7.17884 -5.54337 5.83603 -7.14441 4.16614 -7.14441C3.28815 -7.14441 2.54789 -6.81731 1.96256 -6.19756V-10.071Z" id="g2-53" />
<ns0:path d="M1.82484 -5.93933C1.82484 -10.0538 3.75297 -10.9835 4.87197 -10.9835C5.23349 -10.9835 6.11148 -10.9146 6.45579 -10.2432C6.18034 -10.2432 5.66388 -10.2432 5.66388 -9.64065C5.66388 -9.17583 6.04262 -9.02089 6.28364 -9.02089C6.43857 -9.02089 6.90339 -9.08975 6.90339 -9.67508C6.90339 -10.7597 6.04262 -11.3794 4.85475 -11.3794C2.80612 -11.3794 0.654187 -9.24469 0.654187 -5.44008C0.654187 -0.757479 2.59953 0.275447 3.97677 0.275447C5.64666 0.275447 7.23049 -1.2223 7.23049 -3.52917C7.23049 -5.6811 5.83603 -7.2477 4.08006 -7.2477C3.02992 -7.2477 2.25522 -6.55908 1.82484 -5.354V-5.93933ZM3.97677 -0.137724C1.85927 -0.137724 1.85927 -3.30536 1.85927 -3.94234C1.85927 -5.18185 2.44459 -6.97225 4.04563 -6.97225C4.33829 -6.97225 5.18185 -6.97225 5.74996 -5.78439C6.05984 -5.11299 6.05984 -4.40715 6.05984 -3.54638C6.05984 -2.61675 6.05984 -1.92813 5.69831 -1.23951C5.31957 -0.533679 4.76868 -0.137724 3.97677 -0.137724Z" id="g2-54" />
<ns0:path d="M6.05984 -5.09577C6.05984 -1.30837 4.49323 -0.137724 3.20207 -0.137724C2.80612 -0.137724 1.84205 -0.18937 1.4461 -0.860772C1.8937 -0.79191 2.22079 -1.03293 2.22079 -1.46331C2.22079 -1.92813 1.84205 -2.08307 1.60104 -2.08307C1.4461 -2.08307 0.98128 -2.01421 0.98128 -1.42888C0.98128 -0.258232 1.99699 0.275447 3.2365 0.275447C5.21628 0.275447 7.23049 -1.8937 7.23049 -5.6811C7.23049 -10.3981 5.30236 -11.3794 3.99398 -11.3794C2.28965 -11.3794 0.654187 -9.88166 0.654187 -7.57479C0.654187 -5.44008 2.04864 -3.85626 3.80461 -3.85626C5.25071 -3.85626 5.88768 -5.19906 6.05984 -5.76717V-5.09577ZM3.83904 -4.13171C3.37423 -4.13171 2.72004 -4.21778 2.18636 -5.25071C1.82484 -5.92211 1.82484 -6.71402 1.82484 -7.55758C1.82484 -8.57329 1.82484 -9.27912 2.30687 -10.0366C2.54789 -10.3981 2.99549 -10.9835 3.99398 -10.9835C6.0254 -10.9835 6.0254 -7.86746 6.0254 -7.17884C6.0254 -5.95654 5.47451 -4.13171 3.83904 -4.13171Z" id="g2-57" />
<ns0:path d="M11.0695 -5.52616C11.3278 -5.52616 11.586 -5.52616 11.586 -5.81882C11.586 -6.1287 11.2933 -6.1287 11.0007 -6.1287H1.37724C1.08457 -6.1287 0.79191 -6.1287 0.79191 -5.81882C0.79191 -5.52616 1.05014 -5.52616 1.30837 -5.52616H11.0695ZM11.0007 -2.46181C11.2933 -2.46181 11.586 -2.46181 11.586 -2.77169C11.586 -3.06435 11.3278 -3.06435 11.0695 -3.06435H1.30837C1.05014 -3.06435 0.79191 -3.06435 0.79191 -2.77169C0.79191 -2.46181 1.08457 -2.46181 1.37724 -2.46181H11.0007Z" id="g2-61" />
</ns0:defs>
<ns0:g id="page1">
<ns0:use x="160.124" ns1:href="#g1-121" y="113.404" />
<ns0:use x="173.742" ns1:href="#g2-61" y="113.404" />
<ns0:use x="190.917" ns1:href="#g0-0" y="113.404" />
<ns0:use x="205.502" ns1:href="#g2-49" y="101.757" />
<ns0:use x="213.397" ns1:href="#g2-53" y="101.757" />
<ns0:rect height="0.688595" width="15.7906" x="205.502" y="108.755" />
<ns0:use x="209.45" ns1:href="#g2-52" y="125.213" />
<ns0:use x="222.488" ns1:href="#g1-120" y="113.404" />
<ns0:use x="235.893" ns1:href="#g0-0" y="113.404" />
<ns0:use x="254.304" ns1:href="#g2-49" y="101.757" />
<ns0:use x="262.199" ns1:href="#g2-53" y="101.757" />
<ns0:rect height="0.688595" width="15.7906" x="254.304" y="108.755" />
<ns0:use x="258.252" ns1:href="#g2-52" y="125.213" />
<ns0:use x="275.116" ns1:href="#g2-43" y="113.404" />
<ns0:use x="291.334" ns1:href="#g2-49" y="113.404" />
<ns0:use x="299.229" ns1:href="#g2-54" y="113.404" />
<ns0:use x="173.742" ns1:href="#g2-61" y="151.941" />
<ns0:use x="190.917" ns1:href="#g0-0" y="151.941" />
<ns0:use x="205.502" ns1:href="#g2-49" y="140.295" />
<ns0:use x="213.397" ns1:href="#g2-53" y="140.295" />
<ns0:rect height="0.688595" width="15.7906" x="205.502" y="147.293" />
<ns0:use x="209.45" ns1:href="#g2-52" y="163.75" />
<ns0:use x="222.488" ns1:href="#g1-120" y="151.941" />
<ns0:use x="235.893" ns1:href="#g2-43" y="151.941" />
<ns0:use x="253.306" ns1:href="#g2-52" y="140.295" />
<ns0:use x="261.202" ns1:href="#g2-57" y="140.295" />
<ns0:rect height="0.688595" width="15.7906" x="253.306" y="147.293" />
<ns0:use x="257.254" ns1:href="#g2-52" y="163.75" />
<ns0:use x="270.292" ns1:href="#g1-58" y="151.941" />
</ns0:g>
</ns0:svg>
